icons/ajax-logo.svg

<?xml version="1.0" encoding="UTF-8" standalone="no"?>
<svg
   xmlns:dc="http://purl.org/dc/elements/1.1/"
   xmlns:cc="http://creativecommons.org/ns#"
   xmlns:rdf="http://www.w3.org/1999/02/22-rdf-syntax-ns#"
   xmlns:svg="http://www.w3.org/2000/svg"
   xmlns="http://www.w3.org/2000/svg"
   xmlns:sodipodi="http://sodipodi.sourceforge.net/DTD/sodipodi-0.dtd"
   xmlns:inkscape="http://www.inkscape.org/namespaces/inkscape"
   id="svg"
   version="1.1"
   width="400"
   height="400"
   style="display: block;"
   sodipodi:docname="ajax.svg"
   inkscape:version="0.92.2 (5c3e80d, 2017-08-06)">
  <metadata
     id="metadata9">
    <rdf:RDF>
      <cc:Work
         rdf:about="">
        <dc:format>image/svg+xml</dc:format>
        <dc:type
           rdf:resource="http://purl.org/dc/dcmitype/StillImage" />
      </cc:Work>
    </rdf:RDF>
  </metadata>
  <defs
     id="defs7" />
  <sodipodi:namedview
     pagecolor="#ffffff"
     bordercolor="#666666"
     borderopacity="1"
     objecttolerance="10"
     gridtolerance="10"
     guidetolerance="10"
     inkscape:pageopacity="0"
     inkscape:pageshadow="2"
     inkscape:window-width="1920"
     inkscape:window-height="1027"
     id="namedview5"
     showgrid="false"
     inkscape:zoom="1.668772"
     inkscape:cx="348.46281"
     inkscape:cy="170.98937"
     inkscape:window-x="1912"
     inkscape:window-y="-8"
     inkscape:window-maximized="1"
     inkscape:current-layer="svgg" />
  <g
     id="svgg">
    <path
       id="path0"
       d="m 157.5,2.966 c -21.192,3.359 -38.002,15.56 -47.855,34.733 -5.087,9.9 -5.046,9.198 -5.614,95.457 l -0.531,80.656 -15,-12.836 -15,-12.836 -11.294,11.18 c -12.122,12 -13.725,14.041 -12.527,15.951 0.424,0.676 0.663,1.904 0.531,2.729 -0.133,0.832 16.899,18.63 38.254,39.974 l 38.493,38.474 6.905,-6.974 c 3.798,-3.836 21.367,-21.146 39.043,-38.467 18.109,-17.746 32.031,-32.151 31.892,-33 -0.136,-0.829 0.16,-2.158 0.658,-2.953 0.927,-1.481 0.815,-1.597 -19.525,-20.067 l -7.571,-6.875 -12.915,12.944 C 158.341,208.175 152.185,214 151.764,214 151.344,214 151,180.2 151,138.89 V 63.78 l 3.149,-5.908 c 7.446,-13.971 16.044,-18.13 38.658,-18.699 35.387,-0.891 50.193,9.3 50.193,34.549 0,4.965 0.281,10.434 0.625,12.153 L 244.25,89 H 270 295.75 l 0.625,-3.125 C 303.591,49.795 284.697,14.536 253,4.932 245.019,2.514 170.087,0.971 157.5,2.966 m 72.543,134.982 c -34.113,33.586 -39.282,39.059 -38.164,40.406 0.711,0.857 1.007,2.022 0.656,2.589 -0.607,0.983 1.643,3.246 18.294,18.391 9.251,8.415 7.713,8.83 21.651,-5.834 6.535,-6.875 12.25,-12.5 12.701,-12.5 2.099,0 0.93,147.627 -1.214,153.36 -6.23,16.65 -19.071,22.33 -48.463,21.437 C 165.602,354.888 154,343.565 154,315.29 V 306 h -27 -27 v 12.369 c 0,41.322 18.74,68.114 51.5,73.628 11.992,2.018 90.621,0.957 97,-1.309 20.917,-7.431 33.678,-20.096 41.812,-41.5 2.141,-5.635 2.164,-6.451 2.464,-86.938 0.166,-44.687 0.513,-81.25 0.771,-81.25 0.259,0 1.704,1.069 3.212,2.375 1.507,1.306 5.216,4.5 8.241,7.097 3.025,2.596 7.757,6.689 10.516,9.093 9.332,8.134 7.795,8.266 16.907,-1.452 4.443,-4.737 9.761,-10.35 11.819,-12.472 2.057,-2.123 3.481,-4.28 3.163,-4.794 -0.317,-0.514 -0.045,-1.576 0.606,-2.36 1.1,-1.325 -75.59,-79.601 -77.827,-79.437 -0.376,0.028 -18.44,17.532 -40.141,38.898"
       inkscape:connector-curvature="0"
       style="fill:#000000;fill-rule:evenodd;stroke:none"
       sodipodi:nodetypes="ccccccccccccccccccsscccsccccscccccccsccscccsccccsccccccccc" />
  </g>
</svg>

<?xml version="1.0" encoding="UTF-8" standalone="no"?>
<!DOCTYPE svg PUBLIC "-//W3C//DTD SVG 1.1//EN" "http://www.w3.org/Graphics/SVG/1.1/DTD/svg11.dtd">
<svg width="100%" height="100%" viewBox="0 0 400 400" version="1.1" xmlns="http://www.w3.org/2000/svg" xmlns:xlink="http://www.w3.org/1999/xlink" xml:space="preserve" xmlns:serif="http://www.serif.com/" style="fill-rule:evenodd;clip-rule:evenodd;stroke-linejoin:round;stroke-miterlimit:2;">
    <g id="svgg">
        <path id="path0" d="M157.5,2.966C136.308,6.325 119.498,18.526 109.645,37.699C104.558,47.599 104.599,46.897 104.031,133.156L103.5,213.812L73.5,188.14C73.5,188.14 48.481,213.361 49.679,215.271C50.103,215.947 50.342,217.175 50.21,218C50.077,218.832 126.957,296.448 126.957,296.448C126.957,296.448 204.957,215.849 205.455,215.054C206.382,213.573 178.359,188.112 178.359,188.112C178.359,188.112 152.185,214 151.764,214C151.344,214 151,180.2 151,138.89L150.937,57.872C158.383,43.901 170.193,39.742 192.807,39.173C228.194,38.282 243,48.473 243,73.722C243,78.687 243.281,84.156 243.625,85.875L296.375,85.875C303.591,49.795 284.697,14.536 253,4.932C245.019,2.514 170.087,0.971 157.5,2.966M191.879,178.354C192.59,179.211 192.886,180.376 192.535,180.943C191.928,181.926 194.178,184.189 210.829,199.334C220.08,207.749 218.542,208.164 232.48,193.5C239.015,186.625 244.73,181 245.181,181C247.28,181 246.111,328.627 243.967,334.36C237.737,351.01 224.896,356.69 195.504,355.797C165.602,354.888 154,343.565 154,315.29L154,306L100,306L100,318.369C100,359.691 118.74,386.483 151.5,391.997C163.492,394.015 242.121,392.954 248.5,390.688C269.417,383.257 282.178,370.592 290.312,349.188C292.453,343.553 292.476,342.737 292.776,262.25C292.942,217.563 293.289,181 293.547,181C293.806,181 312.757,197.161 315.516,199.565C324.848,207.699 323.311,207.831 332.423,198.113C336.866,193.376 347.723,181.361 347.405,180.847C347.088,180.333 347.36,179.271 348.011,178.487C349.111,177.162 272.421,98.886 270.184,99.05"/>
    </g>
</svg>
